vendor/shopware/storefront/Resources/app/storefront/dist/assets/icon/default/code.svg

<svg xmlns="http://www.w3.org/2000/svg" width="24" height="24" viewBox="0 0 24 24">
  <path fill="#758CA3" fill-rule="evenodd" d="M13.0298575,3.75746437 C13.1638062,3.22166947 13.7067407,2.89590877 14.2425356,3.0298575 C14.7783305,3.16380623 15.1040912,3.70674072 14.9701425,4.24253563 L10.9701425,20.2425356 C10.8361938,20.7783305 10.2932593,21.1040912 9.75746437,20.9701425 C9.22166947,20.8361938 8.89590877,20.2932593 9.0298575,19.7574644 L13.0298575,3.75746437 Z M6.70710678,7.70710678 L2.41421356,12 L6.70710678,16.2928932 C7.09763107,16.6834175 7.09763107,17.3165825 6.70710678,17.7071068 C6.31658249,18.0976311 5.68341751,18.0976311 5.29289322,17.7071068 L0.292893219,12.7071068 C-0.0976310729,12.3165825 -0.0976310729,11.6834175 0.292893219,11.2928932 L5.29289322,6.29289322 C5.68341751,5.90236893 6.31658249,5.90236893 6.70710678,6.29289322 C7.09763107,6.68341751 7.09763107,7.31658249 6.70710678,7.70710678 Z M17.2928932,16.2928932 L21.5857864,12 L17.2928932,7.70710678 C16.9023689,7.31658249 16.9023689,6.68341751 17.2928932,6.29289322 C17.6834175,5.90236893 18.3165825,5.90236893 18.7071068,6.29289322 L23.7071068,11.2928932 C24.0976311,11.6834175 24.0976311,12.3165825 23.7071068,12.7071068 L18.7071068,17.7071068 C18.3165825,18.0976311 17.6834175,18.0976311 17.2928932,17.7071068 C16.9023689,17.3165825 16.9023689,16.6834175 17.2928932,16.2928932 Z"/>
</svg>

<svg xmlns="http://www.w3.org/2000/svg" width="24" height="24" viewBox="0 0 24 24"><path fill="#758CA3" fill-rule="evenodd" d="M13.0299 3.7575c.134-.5358.6768-.8616 1.2126-.7276.5358.134.8616.6768.7276 1.2126l-4 16c-.134.5358-.6768.8616-1.2126.7276-.5358-.134-.8616-.6768-.7276-1.2126l4-16zM6.707 7.707 2.4142 12l4.293 4.2929c.3904.3905.3904 1.0237 0 1.4142-.3906.3905-1.0238.3905-1.4143 0l-5-5c-.3905-.3905-.3905-1.0237 0-1.4142l5-5c.3905-.3905 1.0237-.3905 1.4142 0 .3905.3905.3905 1.0237 0 1.4142zm10.586 8.586L21.5858 12l-4.293-4.2929c-.3904-.3905-.3904-1.0237 0-1.4142.3906-.3905 1.0238-.3905 1.4143 0l5 5c.3905.3905.3905 1.0237 0 1.4142l-5 5c-.3905.3905-1.0237.3905-1.4142 0-.3905-.3905-.3905-1.0237 0-1.4142z"/></svg>
